lib/functional/office&editing/file-audio.svg

<svg xmlns="http://www.w3.org/2000/svg" fill="none" stroke="currentColor" aria-hidden="true" viewBox="0 0 32 32"><g id="Icon-FileAudio"><g clip-path="url(#clip0_12_1837)"><g id="size=md (32px)"><g id="FileAudio"><path id="Vector" stroke-linecap="round" stroke-linejoin="round" stroke-width="2" d="M19 4V11H26"/><path id="Vector_2" stroke-linecap="round" stroke-linejoin="round" stroke-width="2" d="M21 28H25C25.2652 28 25.5196 27.8946 25.7071 27.7071C25.8946 27.5196 26 27.2652 26 27V11L19 4H7C6.73478 4 6.48043 4.10536 6.29289 4.29289C6.10536 4.48043 6 4.73478 6 5V16"/><path id="Vector_3" stroke-linecap="round" stroke-linejoin="round" stroke-width="2" d="M6 25.5V21.5H9L12 19V28L9 25.5H6Z"/><path id="Vector_4" stroke-linecap="round" stroke-linejoin="round" stroke-width="2" d="M16 20.375C16.469 20.7497 16.8476 21.2252 17.1078 21.7661C17.368 22.3071 17.5031 22.8997 17.5031 23.5C17.5031 24.1003 17.368 24.6929 17.1078 25.2339C16.8476 25.7748 16.469 26.2503 16 26.625"/></g></g></g></g><defs><clipPath id="clip0_12_1837"><rect width="32" height="32" fill="white" rx="5"/></clipPath></defs></svg>

<svg xmlns="http://www.w3.org/2000/svg" fill="none" stroke="currentColor" aria-hidden="true" viewBox="0 0 32 32"><g stroke="#101828" stroke-linecap="round" stroke-linejoin="round" stroke-width="2" clip-path="url(#a)"><path d="M19 4v7h7"/><path d="M21 28h4a1 1 0 0 0 1-1V11l-7-7H7a1 1 0 0 0-1 1v11"/><path d="M6 25.5v-4h3l3-2.5v9l-3-2.5H6Zm10-5.125a4 4 0 0 1 0 6.25"/></g><defs><clipPath id="a"><rect width="32" height="32" fill="#fff" rx="5"/></clipPath></defs></svg>
